material/.icons/material/brightness-percent.svg

<svg xmlns="http://www.w3.org/2000/svg" viewBox="0 0 24 24"><path d="M20.04 8.71V4h-4.7L12 .69 8.71 4H4v4.71L.69 12 4 15.34v4.7h4.71L12 23.35l3.34-3.31h4.7v-4.7L23.35 12l-3.31-3.29M8.83 7.05c.98 0 1.77.79 1.77 1.78a1.77 1.77 0 01-1.77 1.77c-.99 0-1.78-.79-1.78-1.77 0-.99.79-1.78 1.78-1.78M15.22 17c-.98 0-1.77-.8-1.77-1.78a1.77 1.77 0 011.77-1.77c.98 0 1.78.79 1.78 1.77A1.78 1.78 0 0115.22 17m-6.72.03L7 15.53 15.53 7l1.5 1.5-8.53 8.53z"/></svg>

<?xml version="1.0" encoding="UTF-8"?><!DOCTYPE svg PUBLIC "-//W3C//DTD SVG 1.1//EN" "http://www.w3.org/Graphics/SVG/1.1/DTD/svg11.dtd"><svg xmlns="http://www.w3.org/2000/svg" xmlns:xlink="http://www.w3.org/1999/xlink" version="1.1" id="mdi-brightness-percent" width="24" height="24" viewBox="0 0 24 24"><path d="M20.04,8.71V4H15.34L12,0.69L8.71,4H4V8.71L0.69,12L4,15.34V20.04H8.71L12,23.35L15.34,20.04H20.04V15.34L23.35,12L20.04,8.71M8.83,7.05C9.81,7.05 10.6,7.84 10.6,8.83A1.77,1.77 0 0,1 8.83,10.6C7.84,10.6 7.05,9.81 7.05,8.83C7.05,7.84 7.84,7.05 8.83,7.05M15.22,17C14.24,17 13.45,16.2 13.45,15.22A1.77,1.77 0 0,1 15.22,13.45C16.2,13.45 17,14.24 17,15.22A1.78,1.78 0 0,1 15.22,17M8.5,17.03L7,15.53L15.53,7L17.03,8.5L8.5,17.03Z" /></svg>
